X:328
L:1/8
M:4/4
K:D
 D3 B ADFA | dAcA{d} BAFE | D3 B ADFA | dA{d}BA E3 F | D3 B ADFA | A BAFA |{d} B2 dB{d} BAFA |1 
 dBAF (3.E.E.ECE :|2 dBAF E2 (3.A.B.c || d2 D(fe)A{d}BA | A BAFA | d3 f{a} fedf | a3 f gefe | 
 df f2 eAce | d2 (3.A.A.d BAFA | B2 dB{d} BAFA |1 dBAF E2 (3.A.B.c :|2 dBAF (3.E.E.ECE ||

